!! 00000] TT[WS
!!!OTL: Wei pengyou
!!!ARE: Asia, China, Shanxi Ningwu
!! Ethnic Group: Han
!! WII, 63
!!!SCT: J0491
!!!YEM: Copyright 1995, estate of Helmut Schaffrath.
**kern
*ICvox
*Ivox
*M2/4
*k[b-e-a-]
*E-:
{8f
16f
16g
8cc
16b-
16cc
=1
8ee-
8ee-
8ee-
8ff
=2
4.cc
8a-
=3
4f
8f
8g
=4
2f}
=5
{8f
16f
16g
8cc
16b-
16cc
=6
8ee-
8ee-
8ee-
8ff
=7
4.cc
8a-
=8
4f
8f
8g
=9
2b-}
==
!!!AGN: Xiaodiao. Qingge, Sichun
!!!ONB: ESAC (Essen Associative Code) Database: CHINA
!!!AMT: simple duple
!!!AIN: vox
!!!EED: Helmut Schaffrath
!!!EEV: 1.0
*-
